X:7857
T:Der Winter ist vergangen
C:anon.
O:Germany
Z:Transcribed by Frank Nordberg - http://www.musicaviva.com
F:http://abc.musicaviva.com/tunes/germany/winter-ist-vergangen.abc
M:C
L:1/4
K:D
A|ddea|f2fg|edec|d2z:|
d/e/|fffe/f/|g2gg|fdfg/f/|e2zA|
ddea|f2fg|edec|d2z|]
W:
W:
W:  From Musica Viva - http://www.musicaviva.com
W:  the Internet center for free sheet music downloads.
